packages/icons/svg/Outline/arrow-left.svg

<svg fill="none" height="24" viewBox="0 0 24 24" width="24" xmlns="http://www.w3.org/2000/svg"><path clip-rule="evenodd" d="m19 11.0002h-11.865l3.633-4.36005c.354-.424.296-1.055-.128-1.408-.425-.354-1.055-.296-1.408.128l-5 6.00005c-.039.047-.059.102-.088.154-.024.042-.053.078-.071.124-.045.115-.072.236-.072.358 0 .001-.001.003-.001.004s.001.003.001.004c0 .122.027.243.072.358.018.046.047.082.071.124.029.052.049.107.088.154l5 6c.198.237.482.36.768.36.226 0 .453-.076.64-.232.424-.353.482-.984.128-1.408l-3.633-4.36h11.865c.552 0 1-.448 1-1s-.448-1-1-1" fill="#6b7280" fill-rule="evenodd"/></svg>

<svg width="24" height="24" viewBox="0 0 24 24" fill="none" xmlns="http://www.w3.org/2000/svg">
<g id="Icon/Outline/arrow-left">
<path id="Mask" fill-rule="evenodd" clip-rule="evenodd" d="M19 11H7.135L10.768 6.63997C11.122 6.21597 11.064 5.58497 10.64 5.23197C10.215 4.87797 9.585 4.93597 9.232 5.35997L4.232 11.36C4.193 11.407 4.173 11.462 4.144 11.514C4.12 11.556 4.091 11.592 4.073 11.638C4.028 11.753 4.001 11.874 4.001 11.996C4.001 11.997 4 11.999 4 12C4 12.001 4.001 12.003 4.001 12.004C4.001 12.126 4.028 12.247 4.073 12.362C4.091 12.408 4.12 12.444 4.144 12.486C4.173 12.538 4.193 12.593 4.232 12.64L9.232 18.64C9.43 18.877 9.714 19 10 19C10.226 19 10.453 18.924 10.64 18.768C11.064 18.415 11.122 17.784 10.768 17.36L7.135 13H19C19.552 13 20 12.552 20 12C20 11.448 19.552 11 19 11Z" fill="#000000"/>
</g>
</svg>
